z_dist/img/icons/crypto/uma-UMA.svg

<svg width="64" height="64" viewBox="0 0 64 64" fill="none" xmlns="http://www.w3.org/2000/svg">
<rect y="0.000488281" width="64" height="64" rx="4" fill="#EDF0F4"/>
<path d="M38.0031 37.3342H36.1975C35.8631 37.3342 35.5789 37.0667 35.5789 36.7156V31.9674L32.419 33.9402C32.1515 34.1074 31.8172 34.1074 31.5496 33.9402L28.4065 31.9674V36.7156C28.4065 37.0499 28.139 37.3342 27.7879 37.3342H25.999C25.6646 37.3342 25.3804 37.0667 25.3804 36.7156V27.5536C25.3804 27.1022 25.7482 26.7344 26.1996 26.7344C26.3668 26.7344 26.5173 26.7845 26.651 26.8848L31.6332 30.3122C31.8339 30.4627 32.1181 30.4627 32.3187 30.3122L37.301 26.8848C37.6688 26.6341 38.1871 26.7344 38.4378 27.1022C38.5382 27.2359 38.5716 27.4031 38.5883 27.5536V36.7156C38.605 37.0499 38.3375 37.3342 38.0031 37.3342Z" fill="#FF4A4A"/>
<path d="M22.6876 37.3172H11.486C11.0346 37.3172 10.6667 36.9494 10.6667 36.498V27.2858C10.6835 26.9347 10.951 26.6672 11.3021 26.6672H13.1077C13.4421 26.6672 13.7263 26.9347 13.7263 27.2858V34.2911H20.5142V27.2858C20.5142 26.9515 20.7817 26.6672 21.1328 26.6672H22.8883C23.2227 26.6672 23.5069 26.9347 23.5069 27.2858V36.498C23.5069 36.9494 23.1391 37.3172 22.6876 37.3172Z" fill="#FF4A4A"/>
<path d="M41.3114 26.6672H52.5131C52.9645 26.6672 53.3323 27.0351 53.3323 27.4865V36.6986C53.3323 37.033 53.0648 37.3172 52.7304 37.3172H50.9248C50.5904 37.3172 50.3062 37.0497 50.3062 36.6986V30.0946C50.3062 29.8773 50.1223 29.6934 49.9049 29.6934H43.9363C43.7189 29.6934 43.535 29.8773 43.535 30.0946V36.6986C43.535 37.033 43.2675 37.3172 42.9164 37.3172H41.1108C40.7764 37.3172 40.4922 37.0497 40.4922 36.6986V27.4865C40.4922 27.0351 40.86 26.6672 41.3114 26.6672Z" fill="#FF4A4A"/>
<path d="M46.0092 31.6328H47.7981C48.1325 31.6328 48.4167 31.9003 48.4167 32.2514V34.0738C48.4167 34.4082 48.1492 34.6924 47.7981 34.6924H46.0092C45.6748 34.6924 45.3906 34.4249 45.3906 34.0738V32.2347C45.3906 31.9003 45.6748 31.6328 46.0092 31.6328Z" fill="#FF4A4A"/>
</svg>

<svg width="64" height="64" fill="none" xmlns="http://www.w3.org/2000/svg"><rect width="64" height="64" rx="4" fill="#EDF0F4"/><path d="M38.003 37.334h-1.806a.617.617 0 01-.618-.618v-4.749l-3.16 1.973a.816.816 0 01-.87 0l-3.142-1.973v4.749a.617.617 0 01-.62.618H26a.617.617 0 01-.619-.618v-9.162a.82.82 0 01.82-.82c.167 0 .317.05.451.15l4.982 3.428c.2.15.485.15.686 0l4.982-3.427a.827.827 0 011.137.217c.1.134.134.301.15.452v9.162a.59.59 0 01-.585.618zm-15.315-.017H11.486a.82.82 0 01-.82-.819v-9.212a.632.632 0 01.636-.619h1.806c.334 0 .618.268.618.619v7.005h6.788v-7.005c0-.335.268-.619.619-.619h1.755c.335 0 .619.268.619.619v9.212a.82.82 0 01-.82.82zm18.623-10.65h11.202a.82.82 0 01.82.82v9.212a.614.614 0 01-.603.618h-1.805a.617.617 0 01-.619-.618v-6.604a.407.407 0 00-.401-.402h-5.969a.407.407 0 00-.401.402v6.604a.617.617 0 01-.619.618h-1.805a.617.617 0 01-.619-.618v-9.212a.82.82 0 01.82-.82z" fill="#FF4A4A"/><path d="M46.01 31.633h1.788c.334 0 .619.267.619.618v1.823a.617.617 0 01-.619.618H46.01a.617.617 0 01-.618-.618v-1.84c0-.334.284-.601.618-.601z" fill="#FF4A4A"/></svg>
